**harm	**harte	**kern	**silbe	**kern	**silbe	**rhyme	**timestamp	**phrase	**leadinstrument
*M4/4	*M4/4	*ICvox	*	*ICvox	*	*	*	*	*
*	*	*VRlead	*	*VRharmonize	*	*	*	*	*
*	*	*Hstimme	*	*Nstimme	*	*	*	*	*
*D:	*D:	*D:	*	*D:	*	*	*	*	*
*	*	*M4/4	*	*M4/4	*	*	*	*	*
*	*	*clefG2	*	*clefG2	*	*	*	*	*
1r;	N	r;	.	r;	.	.	0	.	r
=1	=1	=1	=1	=1	=1	=1	=1	=1	=1
*>Letter>A	*>Letter>A	*>Letter>A	*>Letter>A	*>Letter>A	*>Letter>A	*>Letter>A	*>Letter>A	*>Letter>A	*>Letter>A
*>Label>Intro	*>Label>Intro	*>Label>Intro	*>Label>Intro	*>Label>Intro	*>Label>Intro	*>Label>Intro	*>Label>Intro	*>Label>Intro	*>Label>Intro
1I	D:maj(9)	1r	.	1r	.	.	0.766	newline	guitar
=2	=2	=2	=2	=2	=2	=2	=2	=2	=2
1IId	E:maj/b7	1r	.	1r	.	.	2.549	.	guitar
=3	=3	=3	=3	=3	=3	=3	=3	=3	=3
1IVc	G:maj/5	1r	.	1r	.	.	4.331	.	guitar
=4	=4	=4	=4	=4	=4	=4	=4	=4	=4
1I	D:maj(9)	1r	.	1r	.	.	6.113	.	guitar
=5	=5	=5	=5	=5	=5	=5	=5	=5	=5
*>Letter>B	*>Letter>B	*>Letter>B	*>Letter>B	*>Letter>B	*>Letter>B	*>Letter>B	*>Letter>B	*>Letter>B	*>Letter>B
*>Label>Verse	*>Label>Verse	*>Label>Verse	*>Label>Verse	*>Label>Verse	*>Label>Verse	*>Label>Verse	*>Label>Verse	*>Label>Verse	*>Label>Verse
1I	D:maj	4f#	Ooh	1r	.	.	7.895	newline	voice
.	.	4e	I	.	.	.	.	.	.
.	.	4d	need	.	.	.	.	.	.
.	.	4e	your	.	.	.	.	.	.
=6	=6	=6	=6	=6	=6	=6	=6	=6	=6
1II	E:maj	4.e	love	1r	.	.	9.631	.	voice
.	.	4B	babe	.	.	.	.	.	.
.	.	8r	.	.	.	.	.	.	.
.	.	4r	.	.	.	.	.	.	.
=7	=7	=7	=7	=7	=7	=7	=7	=7	=7
1IV	G:maj	4B	Guess	1r	.	.	11.367	.	voice
.	.	4d	you	.	.	.	.	.	.
.	.	4g	know	.	.	.	.	.	.
.	.	8g	it's	.	.	.	.	.	.
.	.	[8f#	true	.	.	A	.	.	.
=8	=8	=8	=8	=8	=8	=8	=8	=8	=8
1I	D:maj	4f#]	_	1r	.	.	13.103	.	voice
.	.	4r	.	.	.	.	.	.	.
.	.	2r	.	.	.	.	.	.	.
=9	=9	=9	=9	=9	=9	=9	=9	=9	=9
1I	D:maj	4f#	Hope	1r	.	.	14.839	newline	voice
.	.	4e	you	.	.	.	.	.	.
.	.	4d	need	.	.	.	.	.	.
.	.	4e	my	.	.	.	.	.	.
=10	=10	=10	=10	=10	=10	=10	=10	=10	=10
1II	E:maj	4.e	love	1r	.	.	16.576	.	voice
.	.	4B	babe	.	.	.	.	.	.
.	.	8r	.	.	.	.	.	.	.
.	.	4r	.	.	.	.	.	.	.
=11	=11	=11	=11	=11	=11	=11	=11	=11	=11
1IV	G:maj	4B	Just	1r	.	.	18.313	.	voice
.	.	4d	like	.	.	.	.	.	.
.	.	4g	I	.	.	.	.	.	.
.	.	8g	need	.	.	.	.	.	.
.	.	[8f#	you	.	.	A	.	.	.
=12	=12	=12	=12	=12	=12	=12	=12	=12	=12
1I	D:maj	4f#]	_	1r	.	.	20.05	.	voice
.	.	4r	.	.	.	.	.	.	.
.	.	2r	.	.	.	.	.	.	.
=13	=13	=13	=13	=13	=13	=13	=13	=13	=13
*>Letter>C	*>Letter>C	*>Letter>C	*>Letter>C	*>Letter>C	*>Letter>C	*>Letter>C	*>Letter>C	*>Letter>C	*>Letter>C
*>Label>Prechorus	*>Label>Prechorus	*>Label>Prechorus	*>Label>Prechorus	*>Label>Prechorus	*>Label>Prechorus	*>Label>Prechorus	*>Label>Prechorus	*>Label>Prechorus	*>Label>Prechorus
1vi	B:min	4.f#	Hold	4.f#	Hold	.	21.787	newline	voice
.	.	4d	me	4d	me	B	.	.	.
.	.	8r	.	8r	.	.	.	.	.
.	.	4r	.	4r	.	.	.	.	.
=14	=14	=14	=14	=14	=14	=14	=14	=14	=14
1IV	G:maj	4.e	Love	4.e	Love	.	23.528	.	voice
.	.	4B	me	4B	me	B	.	.	.
.	.	8r	.	8r	.	.	.	.	.
.	.	4r	.	4r	.	.	.	.	.
=15	=15	=15	=15	=15	=15	=15	=15	=15	=15
1vi	B:min	4.f#	Hold	4.f#	Hold	.	25.27	.	voice
.	.	4d	me	4d	me	B	.	.	.
.	.	8r	.	8r	.	.	.	.	.
.	.	4r	.	4r	.	.	.	.	.
=16	=16	=16	=16	=16	=16	=16	=16	=16	=16
1II	E:maj	4.e	Love	4.e	Love	.	27.011	.	voice
.	.	4B	Me	4B	Me	B	.	.	.
.	.	8r	.	8r	.	.	.	.	.
.	.	8r	.	4r	.	.	.	.	.
.	.	8e	I	.	.	.	.	.	.
=17	=17	=17	=17	=17	=17	=17	=17	=17	=17
*>Letter>B2	*>Letter>B2	*>Letter>B2	*>Letter>B2	*>Letter>B2	*>Letter>B2	*>Letter>B2	*>Letter>B2	*>Letter>B2	*>Letter>B2
*>Label>Chorus	*>Label>Chorus	*>Label>Chorus	*>Label>Chorus	*>Label>Chorus	*>Label>Chorus	*>Label>Chorus	*>Label>Chorus	*>Label>Chorus	*>Label>Chorus
1I	D:maj	4f#	ain't	1r	.	.	28.753	newline	voice
.	.	4e	got	.	.	.	.	.	.
.	.	8d	no-	.	.	.	.	.	.
.	.	8d	-thin'	.	.	.	.	.	.
.	.	4e	but	.	.	.	.	.	.
=18	=18	=18	=18	=18	=18	=18	=18	=18	=18
1II	E:maj	4.e	love	1r	.	.	30.473	.	voice
.	.	4.B	babe	.	.	C	.	.	.
.	.	4r	.	.	.	.	.	.	.
=19	=19	=19	=19	=19	=19	=19	=19	=19	=19
1IV	G:maj	4r	.	4r	.	.	32.193	.	voice
.	.	4g	Eight	4d	Eight	C	.	.	.
.	.	4g	days	4d	days	C	.	.	.
.	.	8g	a	8c#	a	.	.	.	.
.	.	16f#	week	16d	week	B	.	.	.
.	.	16e	_	16B	_	.	.	.	.
=20	=20	=20	=20	=20	=20	=20	=20	=20	=20
1I	D:maj	4d	_	4A	_	.	33.913	.	voice
.	.	4r	.	4r	.	.	.	.	.
.	.	2r	.	2r	.	.	.	.	.
=21	=21	=21	=21	=21	=21	=21	=21	=21	=21
*>Letter>B	*>Letter>B	*>Letter>B	*>Letter>B	*>Letter>B	*>Letter>B	*>Letter>B	*>Letter>B	*>Letter>B	*>Letter>B
*>Label>Verse	*>Label>Verse	*>Label>Verse	*>Label>Verse	*>Label>Verse	*>Label>Verse	*>Label>Verse	*>Label>Verse	*>Label>Verse	*>Label>Verse
1I	D:maj	4f#	Love	1r	.	.	35.634	newline	voice
.	.	4e	you	.	.	.	.	.	.
.	.	4d	ev-	.	.	.	.	.	.
.	.	8e	-ery	.	.	.	.	.	.
.	.	[8e	day	.	.	.	.	.	.
=22	=22	=22	=22	=22	=22	=22	=22	=22	=22
1II	E:maj	4.e]	_	1r	.	.	37.368	.	voice
.	.	4.B	girl	.	.	.	.	.	.
.	.	4r	.	.	.	.	.	.	.
=23	=23	=23	=23	=23	=23	=23	=23	=23	=23
1IV	G:maj	4B	Al-	1r	.	.	39.102	.	voice
.	.	4d	-ways	.	.	.	.	.	.
.	.	4g	on	.	.	.	.	.	.
.	.	8g	my	.	.	.	.	.	.
.	.	[8f#	mind	.	.	D	.	.	.
=24	=24	=24	=24	=24	=24	=24	=24	=24	=24
1I	D:maj	4.f#]	_	1r	.	.	40.837	.	voice
.	.	8r	.	.	.	.	.	.	.
.	.	2r	.	.	.	.	.	.	.
=25	=25	=25	=25	=25	=25	=25	=25	=25	=25
1I	D:maj	4f#	One	1r	.	.	42.571	newline	voice
.	.	4e	thing	.	.	.	.	.	.
.	.	8d	I	.	.	.	.	.	.
.	.	4e	can	.	.	.	.	.	.
.	.	[8e	say	.	.	.	.	.	.
=26	=26	=26	=26	=26	=26	=26	=26	=26	=26
1II	E:maj	4.e]	_	1r	.	.	44.308	.	voice
.	.	[8B	girl	.	.	.	.	.	.
.	.	4B]	_	.	.	.	.	.	.
.	.	4r	.	.	.	.	.	.	.
=27	=27	=27	=27	=27	=27	=27	=27	=27	=27
1IV	G:maj	4B	Love	1r	.	.	46.045	.	voice
.	.	4d	you	.	.	.	.	.	.
.	.	4g	all	.	.	.	.	.	.
.	.	8g	the	.	.	.	.	.	.
.	.	[8f#	time	.	.	D	.	.	.
=28	=28	=28	=28	=28	=28	=28	=28	=28	=28
1I	D:maj	4f#]	_	1r	.	.	47.782	.	voice
.	.	4r	.	.	.	.	.	.	.
.	.	2r	.	.	.	.	.	.	.
=29	=29	=29	=29	=29	=29	=29	=29	=29	=29
*>Letter>C	*>Letter>C	*>Letter>C	*>Letter>C	*>Letter>C	*>Letter>C	*>Letter>C	*>Letter>C	*>Letter>C	*>Letter>C
*>Label>Prechorus	*>Label>Prechorus	*>Label>Prechorus	*>Label>Prechorus	*>Label>Prechorus	*>Label>Prechorus	*>Label>Prechorus	*>Label>Prechorus	*>Label>Prechorus	*>Label>Prechorus
1vi	B:min	4.f#	Hold	4.a	Hold	.	49.519	newline	voice
.	.	4d	me	4f#	me	B	.	.	.
.	.	8r	.	8r	.	.	.	.	.
.	.	4r	.	4r	.	.	.	.	.
=30	=30	=30	=30	=30	=30	=30	=30	=30	=30
1IV	G:maj	4.e	Love	4.g	Love	.	51.247	.	voice
.	.	4B	me	4d	me	B	.	.	.
.	.	8r	.	8r	.	.	.	.	.
.	.	4r	.	4r	.	.	.	.	.
=31	=31	=31	=31	=31	=31	=31	=31	=31	=31
1vi	B:min	4.f#	Hold	4.a	Hold	.	52.975	.	voice
.	.	4d	me	4f#	me	B	.	.	.
.	.	8r	.	8r	.	.	.	.	.
.	.	4r	.	4r	.	.	.	.	.
=32	=32	=32	=32	=32	=32	=32	=32	=32	=32
1II	E:maj	4.e	Love	4.g#	Love	.	54.703	.	voice
.	.	4B	Me	4e	Me	B	.	.	.
.	.	8r	.	8r	.	.	.	.	.
.	.	8r	.	4r	.	.	.	.	.
.	.	8e	I	.	.	.	.	.	.
=33	=33	=33	=33	=33	=33	=33	=33	=33	=33
*>Letter>B2	*>Letter>B2	*>Letter>B2	*>Letter>B2	*>Letter>B2	*>Letter>B2	*>Letter>B2	*>Letter>B2	*>Letter>B2	*>Letter>B2
*>Label>Chorus	*>Label>Chorus	*>Label>Chorus	*>Label>Chorus	*>Label>Chorus	*>Label>Chorus	*>Label>Chorus	*>Label>Chorus	*>Label>Chorus	*>Label>Chorus
1I	D:maj	4f#	ain't	1r	.	.	56.431	newline	voice
.	.	4e	got	.	.	.	.	.	.
.	.	8d	no-	.	.	.	.	.	.
.	.	8d	-thin'	.	.	.	.	.	.
.	.	4e	but	.	.	.	.	.	.
=34	=34	=34	=34	=34	=34	=34	=34	=34	=34
1II	E:maj	4.e	love	1r	.	.	58.14	.	voice
.	.	4.B	girl	.	.	.	.	.	.
.	.	4r	.	.	.	.	.	.	.
=35	=35	=35	=35	=35	=35	=35	=35	=35	=35
1IV	G:maj	4r	.	4r	.	.	59.849	.	voice
.	.	4g	Eight	4d	Eight	C	.	.	.
.	.	4g	days	4d	days	C	.	.	.
.	.	8g	a	8c#	a	.	.	.	.
.	.	16f#	week	16d	week	B	.	.	.
.	.	16e	_	16B	_	.	.	.	.
=36	=36	=36	=36	=36	=36	=36	=36	=36	=36
1I	D:maj	4d	_	4A	_	.	61.559	.	voice
.	.	4r	.	4r	.	.	.	.	.
.	.	2r	.	2r	.	.	.	.	.
=37	=37	=37	=37	=37	=37	=37	=37	=37	=37
*>Letter>D	*>Letter>D	*>Letter>D	*>Letter>D	*>Letter>D	*>Letter>D	*>Letter>D	*>Letter>D	*>Letter>D	*>Letter>D
*>Label>Bridge	*>Label>Bridge	*>Label>Bridge	*>Label>Bridge	*>Label>Bridge	*>Label>Bridge	*>Label>Bridge	*>Label>Bridge	*>Label>Bridge	*>Label>Bridge
1V	A:maj	2e	Eight	2A	Eight	C	63.268	newline	voice
.	.	4.e	days	4.A	days	C	.	.	.
.	.	8f#	a	8B	a	.	.	.	.
=38	=38	=38	=38	=38	=38	=38	=38	=38	=38
1V	A:maj	2e	week	2A	week	B	65.038	.	voice
.	.	4.r	.	4.r	.	.	.	.	.
.	.	8d	I	8A	I	.	.	.	.
=39	=39	=39	=39	=39	=39	=39	=39	=39	=39
1vi	B:min	4e	love	4B	love	.	66.807	.	voice
.	.	4d	_	4A	_	.	.	.	.
.	.	4e	_	4B	_	.	.	.	.
.	.	4d	_	4A	_	.	.	.	.
=40	=40	=40	=40	=40	=40	=40	=40	=40	=40
1vi	B:min	12e	_	12B	_	.	68.577	.	voice
.	.	12d	_	12A	_	.	.	.	.
.	.	12B	you	12F#	you	.	.	.	.
.	.	4r	.	4r	.	.	.	.	.
.	.	2r	.	2r	.	.	.	.	.
=41	=41	=41	=41	=41	=41	=41	=41	=41	=41
1II	E:maj	2e	Eight	2G#	Eight	C	70.346	newline	voice
.	.	4.e	days	4.G#	days	C	.	.	.
.	.	8f#	a	8A	a	.	.	.	.
=42	=42	=42	=42	=42	=42	=42	=42	=42	=42
1II	E:maj	4e	week	4G#	week	B	72.09	.	voice
.	.	4r	.	4r	.	.	.	.	.
.	.	4.r	.	4.r	.	.	.	.	.
.	.	8d	is	8A	is	.	.	.	.
=43	=43	=43	=43	=43	=43	=43	=43	=43	=43
1IV	G:maj	4e	not	4B	not	.	73.833	.	voice
.	.	4d	e-	4A	e-	.	.	.	.
.	.	4e	-nough	4B	-nough	.	.	.	.
.	.	4d	to	4A	to	.	.	.	.
=44	=44	=44	=44	=44	=44	=44	=44	=44	=44
1V	A:maj	8e	show	8c#	show	.	75.577	.	voice
.	.	4e	I	4c#	I	.	.	.	.
.	.	4.g	care	4.e	care	.	.	.	.
.	.	4r	.	4r	.	.	.	.	.
=45	=45	=45	=45	=45	=45	=45	=45	=45	=45
*>Letter>B	*>Letter>B	*>Letter>B	*>Letter>B	*>Letter>B	*>Letter>B	*>Letter>B	*>Letter>B	*>Letter>B	*>Letter>B
*>Label>Verse	*>Label>Verse	*>Label>Verse	*>Label>Verse	*>Label>Verse	*>Label>Verse	*>Label>Verse	*>Label>Verse	*>Label>Verse	*>Label>Verse
1I	D:maj	4f#	Ooh	1r	.	.	77.32	newline	voice
.	.	4e	I	.	.	.	.	.	.
.	.	4d	need	.	.	.	.	.	.
.	.	4e	your	.	.	.	.	.	.
=46	=46	=46	=46	=46	=46	=46	=46	=46	=46
1II	E:maj	4.e	love	1r	.	.	79.057	.	voice
.	.	4B	babe	.	.	.	.	.	.
.	.	8r	.	.	.	.	.	.	.
.	.	4r	.	.	.	.	.	.	.
=47	=47	=47	=47	=47	=47	=47	=47	=47	=47
1IV	G:maj	4B	Yes	1r	.	.	80.794	.	voice
.	.	4d	you	.	.	.	.	.	.
.	.	4g	know	.	.	.	.	.	.
.	.	8g	it's	.	.	.	.	.	.
.	.	[8f#	true	.	.	A	.	.	.
=48	=48	=48	=48	=48	=48	=48	=48	=48	=48
1I	D:maj	4f#]	_	1r	.	.	82.531	.	voice
.	.	4r	.	.	.	.	.	.	.
.	.	2r	.	.	.	.	.	.	.
=49	=49	=49	=49	=49	=49	=49	=49	=49	=49
1I	D:maj	4f#	Hope	1r	.	.	84.268	newline	voice
.	.	4e	you	.	.	.	.	.	.
.	.	4d	need	.	.	.	.	.	.
.	.	4e	my	.	.	.	.	.	.
=50	=50	=50	=50	=50	=50	=50	=50	=50	=50
1II	E:maj	4.e	love	1r	.	.	86.015	.	voice
.	.	4B	babe	.	.	.	.	.	.
.	.	8r	.	.	.	.	.	.	.
.	.	4r	.	.	.	.	.	.	.
=51	=51	=51	=51	=51	=51	=51	=51	=51	=51
1IV	G:maj	4B	Just	1r	.	.	87.762	.	voice
.	.	4d	like	.	.	.	.	.	.
.	.	4g	I	.	.	.	.	.	.
.	.	8g	need	.	.	.	.	.	.
.	.	[8f#	you	.	.	A	.	.	.
=52	=52	=52	=52	=52	=52	=52	=52	=52	=52
1I	D:maj	4f#]	_	1r	.	.	89.509	.	voice
.	.	8r	.	.	.	.	.	.	.
.	.	8f#	Oh	.	.	.	.	.	.
.	.	12e	_	.	.	.	.	.	.
.	.	12d	_	.	.	.	.	.	.
.	.	[12e	huh	.	.	.	.	.	.
.	.	8e]	_	.	.	.	.	.	.
.	.	8e	Hold	.	.	.	.	.	.
=53	=53	=53	=53	=53	=53	=53	=53	=53	=53
*>Letter>C	*>Letter>C	*>Letter>C	*>Letter>C	*>Letter>C	*>Letter>C	*>Letter>C	*>Letter>C	*>Letter>C	*>Letter>C
*>Label>Prechorus	*>Label>Prechorus	*>Label>Prechorus	*>Label>Prechorus	*>Label>Prechorus	*>Label>Prechorus	*>Label>Prechorus	*>Label>Prechorus	*>Label>Prechorus	*>Label>Prechorus
1vi	B:min	4.f#	_	4.f#	Hold	.	91.255	newline	voice
.	.	4d	me	4d	me	B	.	.	.
.	.	8r	.	8r	.	.	.	.	.
.	.	4r	.	4r	.	.	.	.	.
=54	=54	=54	=54	=54	=54	=54	=54	=54	=54
1IV	G:maj	4.e	Love	4.e	Love	.	92.987	.	voice
.	.	4B	me	4B	me	B	.	.	.
.	.	8r	.	8r	.	.	.	.	.
.	.	4r	.	4r	.	.	.	.	.
=55	=55	=55	=55	=55	=55	=55	=55	=55	=55
1vi	B:min	4.f#	Hold	4.f#	Hold	.	94.719	.	voice
.	.	8d	me	4d	me	B	.	.	.
.	.	8f#	_	.	.	.	.	.	.
.	.	8r	.	8r	.	.	.	.	.
.	.	4r	.	4r	.	.	.	.	.
=56	=56	=56	=56	=56	=56	=56	=56	=56	=56
1II	E:maj	4.e	Love	4.e	Love	.	96.451	.	voice
.	.	4B	Me	4B	Me	B	.	.	.
.	.	8r	.	8r	.	.	.	.	.
.	.	8r	.	4r	.	.	.	.	.
.	.	8e	I	.	.	.	.	.	.
=57	=57	=57	=57	=57	=57	=57	=57	=57	=57
*>Letter>B2	*>Letter>B2	*>Letter>B2	*>Letter>B2	*>Letter>B2	*>Letter>B2	*>Letter>B2	*>Letter>B2	*>Letter>B2	*>Letter>B2
*>Label>Chorus	*>Label>Chorus	*>Label>Chorus	*>Label>Chorus	*>Label>Chorus	*>Label>Chorus	*>Label>Chorus	*>Label>Chorus	*>Label>Chorus	*>Label>Chorus
1I	D:maj	4f#	ain't	1r	.	.	98.182	newline	voice
.	.	4e	got	.	.	.	.	.	.
.	.	8d	no-	.	.	.	.	.	.
.	.	8d	-thin'	.	.	.	.	.	.
.	.	4e	but	.	.	.	.	.	.
=58	=58	=58	=58	=58	=58	=58	=58	=58	=58
1II	E:maj	4.e	love	1r	.	.	99.903	.	voice
.	.	4.B	babe	.	.	C	.	.	.
.	.	4r	.	.	.	.	.	.	.
=59	=59	=59	=59	=59	=59	=59	=59	=59	=59
1IV	G:maj	4r	.	4r	.	.	101.624	.	voice
.	.	4g	Eight	4d	Eight	C	.	.	.
.	.	4g	days	4d	days	C	.	.	.
.	.	8g	a	8c#	a	.	.	.	.
.	.	16f#	week	16d	week	B	.	.	.
.	.	16e	_	16B	_	.	.	.	.
=60	=60	=60	=60	=60	=60	=60	=60	=60	=60
1I	D:maj	4d	_	4A	_	.	103.344	.	voice
.	.	4r	.	4r	.	.	.	.	.
.	.	2r	.	2r	.	.	.	.	.
=61	=61	=61	=61	=61	=61	=61	=61	=61	=61
*>Letter>D	*>Letter>D	*>Letter>D	*>Letter>D	*>Letter>D	*>Letter>D	*>Letter>D	*>Letter>D	*>Letter>D	*>Letter>D
*>Label>Bridge	*>Label>Bridge	*>Label>Bridge	*>Label>Bridge	*>Label>Bridge	*>Label>Bridge	*>Label>Bridge	*>Label>Bridge	*>Label>Bridge	*>Label>Bridge
1V	A:maj	2e	Eight	2A	Eight	C	105.065	newline	voice
.	.	4.e	days	4.A	days	C	.	.	.
.	.	8f#	a	8B	a	.	.	.	.
=62	=62	=62	=62	=62	=62	=62	=62	=62	=62
1V	A:maj	2e	week	2A	week	B	106.831	.	voice
.	.	4.r	.	4.r	.	.	.	.	.
.	.	8d	I	8A	I	.	.	.	.
=63	=63	=63	=63	=63	=63	=63	=63	=63	=63
1vi	B:min	4e	love	4B	love	.	108.597	.	voice
.	.	4d	_	4A	_	.	.	.	.
.	.	4e	_	4B	_	.	.	.	.
.	.	4d	_	4A	_	.	.	.	.
=64	=64	=64	=64	=64	=64	=64	=64	=64	=64
1vi	B:min	12e	_	12B	_	.	110.363	.	voice
.	.	12d	_	12A	_	.	.	.	.
.	.	12B	you	12F#	you	.	.	.	.
.	.	4r	.	4r	.	.	.	.	.
.	.	2r	.	2r	.	.	.	.	.
=65	=65	=65	=65	=65	=65	=65	=65	=65	=65
1II	E:maj	2e	Eight	2G#	Eight	C	112.129	newline	voice
.	.	4.e	days	4.G#	days	C	.	.	.
.	.	8f#	a	8A	a	.	.	.	.
=66	=66	=66	=66	=66	=66	=66	=66	=66	=66
1II	E:maj	4.e	week	4.G#	week	B	113.874	.	voice
.	.	8r	.	8r	.	.	.	.	.
.	.	4r	.	4r	.	.	.	.	.
.	.	8r	.	8r	.	.	.	.	.
.	.	8d	is	8A	is	.	.	.	.
=67	=67	=67	=67	=67	=67	=67	=67	=67	=67
1IV	G:maj	4e	not	4B	not	.	115.619	.	voice
.	.	4d	e-	4A	e-	.	.	.	.
.	.	4e	-nough	4B	-nough	.	.	.	.
.	.	4d	to	4A	to	.	.	.	.
=68	=68	=68	=68	=68	=68	=68	=68	=68	=68
1V	A:maj	8e	show	8c#	show	.	117.363	.	voice
.	.	4e	I	4c#	I	.	.	.	.
.	.	4.g	care	4.e	care	.	.	.	.
.	.	4r	.	4r	.	.	.	.	.
=69	=69	=69	=69	=69	=69	=69	=69	=69	=69
*>Letter>B	*>Letter>B	*>Letter>B	*>Letter>B	*>Letter>B	*>Letter>B	*>Letter>B	*>Letter>B	*>Letter>B	*>Letter>B
*>Label>Verse	*>Label>Verse	*>Label>Verse	*>Label>Verse	*>Label>Verse	*>Label>Verse	*>Label>Verse	*>Label>Verse	*>Label>Verse	*>Label>Verse
1I	D:maj	4f#	Love	1r	.	.	119.108	newline	voice
.	.	4e	you	.	.	.	.	.	.
.	.	8d	ev-	.	.	.	.	.	.
.	.	4e	-ery	.	.	.	.	.	.
.	.	[8e	day	.	.	C	.	.	.
=70	=70	=70	=70	=70	=70	=70	=70	=70	=70
1II	E:maj	4.e]	_	1r	.	.	120.857	.	voice
.	.	4.B	girl	.	.	.	.	.	.
.	.	4r	.	.	.	.	.	.	.
=71	=71	=71	=71	=71	=71	=71	=71	=71	=71
1IV	G:maj	4B	Al-	1r	.	.	122.605	.	voice
.	.	4d	-ways	.	.	.	.	.	.
.	.	4g	on	.	.	.	.	.	.
.	.	8g	my	.	.	.	.	.	.
.	.	[8f#	mind	.	.	D	.	.	.
=72	=72	=72	=72	=72	=72	=72	=72	=72	=72
1I	D:maj	4.f#]	_	1r	.	.	124.354	.	voice
.	.	8r	.	.	.	.	.	.	.
.	.	2r	.	.	.	.	.	.	.
=73	=73	=73	=73	=73	=73	=73	=73	=73	=73
1I	D:maj	4f#	One	1r	.	.	126.102	newline	voice
.	.	4e	thing	.	.	.	.	.	.
.	.	8d	I	.	.	.	.	.	.
.	.	4e	can	.	.	.	.	.	.
.	.	[8e	say	.	.	C	.	.	.
=74	=74	=74	=74	=74	=74	=74	=74	=74	=74
1II	E:maj	4.e]	_	1r	.	.	127.857	.	voice
.	.	[8B	girl	.	.	.	.	.	.
.	.	4B]	_	.	.	.	.	.	.
.	.	4r	.	.	.	.	.	.	.
=75	=75	=75	=75	=75	=75	=75	=75	=75	=75
1IV	G:maj	4B	Love	1r	.	.	129.612	.	voice
.	.	4d	you	.	.	.	.	.	.
.	.	4g	all	.	.	.	.	.	.
.	.	8g	the	.	.	.	.	.	.
.	.	[8f#	time	.	.	D	.	.	.
=76	=76	=76	=76	=76	=76	=76	=76	=76	=76
1I	D:maj	4f#]	_	1r	.	.	131.366	.	voice
.	.	4r	.	.	.	.	.	.	.
.	.	2r	.	.	.	.	.	.	.
=77	=77	=77	=77	=77	=77	=77	=77	=77	=77
*>Letter>C	*>Letter>C	*>Letter>C	*>Letter>C	*>Letter>C	*>Letter>C	*>Letter>C	*>Letter>C	*>Letter>C	*>Letter>C
*>Label>Prechorus	*>Label>Prechorus	*>Label>Prechorus	*>Label>Prechorus	*>Label>Prechorus	*>Label>Prechorus	*>Label>Prechorus	*>Label>Prechorus	*>Label>Prechorus	*>Label>Prechorus
1vi	B:min	4.f#	Hold	4.a	Hold	.	133.121	newline	voice
.	.	4d	me	4f#	me	B	.	.	.
.	.	8r	.	8r	.	.	.	.	.
.	.	4r	.	4r	.	.	.	.	.
=78	=78	=78	=78	=78	=78	=78	=78	=78	=78
1IV	G:maj	4.e	Love	4.g	Love	.	134.851	.	voice
.	.	4B	me	4d	me	B	.	.	.
.	.	8r	.	8r	.	.	.	.	.
.	.	4r	.	4r	.	.	.	.	.
=79	=79	=79	=79	=79	=79	=79	=79	=79	=79
1vi	B:min	4.f#	Hold	4.a	Hold	.	136.581	.	voice
.	.	8d	me	4f#	me	B	.	.	.
.	.	8f#	_	.	.	.	.	.	.
.	.	8r	.	8r	.	.	.	.	.
.	.	4r	.	4r	.	.	.	.	.
=80	=80	=80	=80	=80	=80	=80	=80	=80	=80
1II	E:maj	4.e	Love	4.g#	Love	.	138.311	.	voice
.	.	4B	Me	4e	Me	B	.	.	.
.	.	8r	.	8r	.	.	.	.	.
.	.	8r	.	4r	.	.	.	.	.
.	.	8e	I	.	.	.	.	.	.
=81	=81	=81	=81	=81	=81	=81	=81	=81	=81
*>Letter>B3	*>Letter>B3	*>Letter>B3	*>Letter>B3	*>Letter>B3	*>Letter>B3	*>Letter>B3	*>Letter>B3	*>Letter>B3	*>Letter>B3
*>Label>Chorus	*>Label>Chorus	*>Label>Chorus	*>Label>Chorus	*>Label>Chorus	*>Label>Chorus	*>Label>Chorus	*>Label>Chorus	*>Label>Chorus	*>Label>Chorus
1I	D:maj	4f#	ain't	1r	.	.	140.041	newline	voice
.	.	4e	got	.	.	.	.	.	.
.	.	8d	no-	.	.	.	.	.	.
.	.	8d	-thin'	.	.	.	.	.	.
.	.	4e	but	.	.	.	.	.	.
=82	=82	=82	=82	=82	=82	=82	=82	=82	=82
1II	E:maj	4.e	love	1r	.	.	141.753	.	voice
.	.	4.B	babe	.	.	C	.	.	.
.	.	4r	.	.	.	.	.	.	.
=83	=83	=83	=83	=83	=83	=83	=83	=83	=83
1IV	G:maj	4r	.	4r	.	.	143.465	.	voice
.	.	4g	Eight	4d	Eight	C	.	.	.
.	.	4g	days	4d	days	C	.	.	.
.	.	8g	a	8c#	a	.	.	.	.
.	.	16f#	week	16d	week	B	.	.	.
.	.	16e	_	16B	_	.	.	.	.
=84	=84	=84	=84	=84	=84	=84	=84	=84	=84
1I	D:maj	4d	_	4A	_	.	145.177	.	voice
.	.	4r	.	4r	.	.	.	.	.
.	.	2r	.	2r	.	.	.	.	.
=85	=85	=85	=85	=85	=85	=85	=85	=85	=85
1IV	G:maj	4r	.	4r	.	.	146.89	newline	voice
.	.	4g	Eight	4d	Eight	C	.	.	.
.	.	4g	days	4d	days	C	.	.	.
.	.	8g	a	8c#	a	.	.	.	.
.	.	16f#	week	16d	week	B	.	.	.
.	.	16e	_	16B	_	.	.	.	.
=86	=86	=86	=86	=86	=86	=86	=86	=86	=86
1I	D:maj	4d	_	4A	_	.	148.631	.	voice
.	.	4r	.	4r	.	.	.	.	.
.	.	2r	.	2r	.	.	.	.	.
=87	=87	=87	=87	=87	=87	=87	=87	=87	=87
1IV	G:maj	4r	.	4r	.	.	150.373	.	voice
.	.	4g	Eight	4d	Eight	C	.	.	.
.	.	4g	days	4d	days	C	.	.	.
.	.	8g	a	8c#	a	.	.	.	.
.	.	16f#	week	16d	week	B	.	.	.
.	.	16e	_	16B	_	.	.	.	.
=88	=88	=88	=88	=88	=88	=88	=88	=88	=88
1I	D:maj	4d	_	4A	_	.	152.114	.	voice
.	.	4r	.	4r	.	.	.	.	.
.	.	2r	.	2r	.	.	.	.	.
=89	=89	=89	=89	=89	=89	=89	=89	=89	=89
*>Letter>A	*>Letter>A	*>Letter>A	*>Letter>A	*>Letter>A	*>Letter>A	*>Letter>A	*>Letter>A	*>Letter>A	*>Letter>A
*>Label>Outro	*>Label>Outro	*>Label>Outro	*>Label>Outro	*>Label>Outro	*>Label>Outro	*>Label>Outro	*>Label>Outro	*>Label>Outro	*>Label>Outro
1I	D:maj(9)	1r	.	1r	.	.	153.856	newline	guitar
=90	=90	=90	=90	=90	=90	=90	=90	=90	=90
1IId	E:maj/b7	1r	.	1r	.	.	155.614	.	guitar
=91	=91	=91	=91	=91	=91	=91	=91	=91	=91
1IVc	G:maj/5	1r	.	1r	.	.	157.371	.	guitar
=92	=92	=92	=92	=92	=92	=92	=92	=92	=92
1I	D:maj(9)	1r	.	1r	.	.	159.129	.	guitar
1r;	N	r;	.	r;	.	.	162.645	.	r
1r;	N	r;	.	r;	.	.	164.419	.	r
*-	*-	*-	*-	*-	*-	*-	*-	*-	*-
!!!BillboardChartDate: 1965/03/27
!!!BillboardPeak: 1
!!!BillboardWeeksOnChart: 10
!!!COC: The Beatles
!!!ENC: Nathaniel Condit-Schultz
!!!EST: Awating manual error checking and editing.
!!!OTL: Eight Days A Week
!!!RDF**harte: Chris Harte's syntax, used by MIREX
!!!RDF**harmony: **recip + pitch class of root + harmonic quality
!!!RDF**leadinstrument: original McGill primary instrumentation annotation
!!!RDF**phrase: newline = linebreak in original McGill transcription
!!!RDF**timestamp: McGill audio timestamp in seconds
!!!RDT: 2017/01/12/
!!!SampleActualRank: 4
!!!SampleID#: 0727
!!!SampleTargetRank: 2
!!!MBID: 9c2b1e21-33f3-4482-813b-c9ea34094a3a
